client/src/assets/notification.svg

<svg width="24" height="24" viewBox="0 0 24 24" fill="none" xmlns="http://www.w3.org/2000/svg">
<path d="M12 22C13.1 22 14 21.1 14 20H10C10 21.1 10.9 22 12 22ZM18 16V11C18 7.93 16.37 5.36 13.5 4.68V4C13.5 3.17 12.83 2.5 12 2.5C11.17 2.5 10.5 3.17 10.5 4V4.68C7.64 5.36 6 7.92 6 11V16L4 18V19H20V18L18 16ZM16 17H8V11C8 8.52 9.51 6.5 12 6.5C14.49 6.5 16 8.52 16 11V17Z" fill="black"/>
</svg>

<?xml version="1.0" encoding="utf-8"?>
<!-- Generator: Adobe Illustrator 25.2.3, SVG Export Plug-In . SVG Version: 6.00 Build 0)  -->
<svg version="1.1" id="Layer_1" xmlns="http://www.w3.org/2000/svg" xmlns:xlink="http://www.w3.org/1999/xlink" x="0px" y="0px"
	 viewBox="0 0 24 24" style="enable-background:new 0 0 24 24;" xml:space="preserve">
<style type="text/css">
	.st0{fill:#FBBC05;}
</style>
<path class="st0" d="M12,22c1.1,0,2-0.9,2-2h-4C10,21.1,10.9,22,12,22z M18,16v-5c0-3.1-1.6-5.6-4.5-6.3V4c0-0.8-0.7-1.5-1.5-1.5
	S10.5,3.2,10.5,4v0.7C7.6,5.4,6,7.9,6,11v5l-2,2v1h16v-1L18,16z M16,17H8v-6c0-2.5,1.5-4.5,4-4.5s4,2,4,4.5V17z"/>
</svg>
